6-data-storage/01-cookie/cookie-xsrf.svg

<?xml version="1.0" encoding="UTF-8"?>
<svg width="668px" height="166px" viewBox="0 0 668 166" version="1.1" xmlns="http://www.w3.org/2000/svg" xmlns:xlink="http://www.w3.org/1999/xlink">
    <!-- Generator: sketchtool 61.2 (101010) - https://sketch.com -->
    <title>cookie-xsrf.svg</title>
    <desc>Created with sketchtool.</desc>
    <g id="data-storage" stroke="none" stroke-width="1" fill="none" fill-rule="evenodd">
        <g id="cookie-xsrf.svg">
            <rect id="Rectangle-1" stroke="#E8C48E" stroke-width="2" fill="#FFF9EB" x="38" y="48" width="282" height="88"></rect>
            <text id="&lt;form-action=&quot;https:" font-family="Helvetica" font-size="14" font-weight="normal" fill="#8A704D">
                <tspan x="48" y="68">&lt;form action="https://bank.com/pay"&gt;</tspan>
                <tspan x="48" y="85"> ....</tspan>
                <tspan x="48" y="102">&lt;/form&gt;</tspan>
            </text>
            <text id="evil.com" font-family="OpenSans-Bold, Open Sans" font-size="14" font-weight="bold" fill="#8A704D">
                <tspan x="149" y="36">evil.com</tspan>
            </text>
            <rect id="Rectangle-1-Copy" stroke="#E8C48E" stroke-width="2" fill="#FFF9EB" x="505" y="48" width="140" height="88"></rect>
            <text id="got-the-cookie?-okay" font-family="Helvetica" font-size="14" font-weight="normal" fill="#8A704D">
                <tspan x="528.020996" y="107">got the cookie?</tspan>
                <tspan x="558.769043" y="124">okay!</tspan>
            </text>
            <text id="bank.com" font-family="OpenSans-Bold, Open Sans" font-size="14" font-weight="bold" fill="#8A704D">
                <tspan x="543" y="36">bank.com</tspan>
            </text>
            <path id="Line" d="M321.643432,67.3747042 L322.634364,67.5090679 L485.761,89.628 L486.567496,83.682384 L499.5,92.5 L484.686405,97.5554332 L485.492,91.61 L322.365636,69.4909321 L321.374704,69.3565684 L321.643432,67.3747042 Z" fill="#EE6B47" fill-rule="nonzero"></path>
            <text id="POST-/pay" transform="translate(409.575842, 67.259988) rotate(7.000000) translate(-409.575842, -67.259988) " font-family="Helvetica" font-size="14" font-weight="normal" fill="#8A704D">
                <tspan x="376.075842" y="71.7599882">POST /pay</tspan>
            </text>
            <text id="cookie:-user=John" transform="translate(407.075842, 90.259988) rotate(7.000000) translate(-407.075842, -90.259988) " font-family="Helvetica" font-size="14" font-weight="normal" fill="#8A704D">
                <tspan x="349.075842" y="94.7599882">cookie: user=John</tspan>
            </text>
        </g>
    </g>
</svg>

<svg xmlns="http://www.w3.org/2000/svg" width="668" height="166" viewBox="0 0 668 166"><defs><style>@import url(https://fonts.googleapis.com/css?family=Open+Sans:bold,italic,bolditalic%7CPT+Mono);@font-face{font-family:&apos;PT Mono&apos;;font-weight:700;font-style:normal;src:local(&apos;PT MonoBold&apos;),url(/font/PTMonoBold.woff2) format(&apos;woff2&apos;),url(/font/PTMonoBold.woff) format(&apos;woff&apos;),url(/font/PTMonoBold.ttf) format(&apos;truetype&apos;)}</style></defs><g id="data-storage" fill="none" fill-rule="evenodd" stroke="none" stroke-width="1"><g id="cookie-xsrf.svg"><path id="Rectangle-1" fill="#FFF9EB" stroke="#E8C48E" stroke-width="2" d="M38 48h282v88H38z"/><text id="&lt;form-action=&quot;https:" fill="#8A704D" font-family="OpenSans-Regular, Open Sans" font-size="14" font-weight="normal"><tspan x="48" y="69">&lt;form action=&quot;https://bank.com/pay&quot;&gt;</tspan> <tspan x="48" y="88"> ....</tspan> <tspan x="48" y="107">&lt;/form&gt;</tspan></text><text id="evil.com" fill="#8A704D" font-family="OpenSans-Bold, Open Sans" font-size="14" font-weight="bold"><tspan x="149" y="36">evil.com</tspan></text><path id="Rectangle-1-Copy" fill="#FFF9EB" stroke="#E8C48E" stroke-width="2" d="M505 48h140v88H505z"/><text id="got-the-cookie?-okay" fill="#8A704D" font-family="OpenSans-Regular, Open Sans" font-size="14" font-weight="normal"><tspan x="526.469" y="108">got the cookie?</tspan> <tspan x="558.308" y="127">okay!</tspan></text><text id="bank.com" fill="#8A704D" font-family="OpenSans-Bold, Open Sans" font-size="14" font-weight="bold"><tspan x="543" y="36">bank.com</tspan></text><path id="Line" fill="#EE6B47" fill-rule="nonzero" d="M321.643 67.375l.991.134 163.127 22.119.806-5.946L499.5 92.5l-14.814 5.055.806-5.945-163.126-22.12-.991-.133.268-1.982z"/><text id="POST-/pay" fill="#8A704D" font-family="OpenSans-Regular, Open Sans" font-size="14" font-weight="normal" transform="rotate(7 409.576 67.26)"><tspan x="376.076" y="72.76">POST /pay</tspan></text><text id="cookie:-user=John" fill="#8A704D" font-family="OpenSans-Regular, Open Sans" font-size="14" font-weight="normal" transform="rotate(7 407.076 90.26)"><tspan x="349.076" y="95.76">cookie: user=John</tspan></text></g></g></svg>
